;[gain=1.0;name=ys2_07]
#opll_mode 1
#tempo 77 ; 77.5
#title {"RUINS OF MOONDORIA"}
  

 ; デデデでででんでん
C l8 v14 @2q2 o3 <[a+24]60
D l24 v14 @2q2 o6 <
D a+a+a+a+a+a+a+a+a+a+
D a+a+a+a+a+a+a+a+a+a+
D a+a+a+a+a+a+a+a+a+a+
D a+a+a+a+a+a+a+a+a+a+
D a+a+a+a+a+a+a+a+a+a+
D a+a+a+a+a+a+a+a+a+a+

